X:537
T: GEH MEIN HANSEI
N: E0519
O: Europa, Mitteleuropa, Deutschland, Ober - Bayern
R: Liebes - Lied
M: 4/4
L: 1/8
K: D
 | A3FB3A | A3GC2C2 |
A3GB3A | A3FD2A,2 |
DEFGABcd | e3dB2
EE | c3BAGBA | D2z6

@@@ Tune index: 4187
